X:1
T:Title
%%score [ ( 1 2 ) ( 3 4 ) ]
L:1/8
Q:1/4=120
M:4/4
K:Eb
V:1 treble nm="Midi_74" snm=" "
V:2 treble 
V:3 bass nm="Midi_74"
V:4 bass 
V:1
"^Andante espressivo" G4 FEGF |"^Words adapted" E2 e2"^Old Folks at Home" c e3 | B4 G2 E2 | F6 z2 | %4
w: Way down up- on the|Swan- ee Ri- ver,|far, far a-|way,|
w: ||||
w: One lit- tle hut a-|mong the bush- es,|one that I|love.|
 G4"^Stephen C. Foster\n(1826-1864)" FEGF |[M:4/4] E2 e2 c e3 | B2 G>E F2 F2 | E6 z2 | G4 FEGF | %9
w: there's where my heart is|turn- ing e- ver,|there's where the old folks|stay.|All up and down the|
w: |||||
w: Still sad- ly to my|mem'- ry rush- es,|no mat- ter where I|rove.|When will I see the|
 E2 e2 c e3 | B4 G2 E2 | F6 z2 | G4 FEGF | E2 e2 c e3 |[M:2/2] B2 GE F2 (F>F) | E6 z2 | %16
w: whole cre- a- tion,|sad- ly I|roam,|still long- ing for my|child- hood stat- ion,|and for the old folks at|home.|
w: |||||
 * * * * *||
w: bees a- hum- ming,|all round the|comb?|When shall I hear the|ban- jo strum- ming,|down in my good old *|home?|
!<(! d3 e!<)!!>(! f2 B2!>)! | B3 c!<(! B2 e2!<)! |!>(! e2 c2!>)! A2 c2 | B6 z2 | G4 FEGF | %21
w: |||roam,|O dear ones, how my|
w: All the world is|sad and drea- ry|ev'- ry- where I|
||
w: |||||
 E2 e2 c !fermata!e3 | B2 GE F2 F>F | E6 z2 |] %24
w: heart grows wea- ry,|far from the old folks at|home.|
w: |||
w: |||
V:2
 E4 DEED | E2 E2 E E3 | G4 E2 E2 | D6 z2 | E4 DEED |[M:4/4] E2 E2 E E3 | G2 E>E D2 D2 | E6 z2 | %8
w: ||||||||
w: All round the lit- tle|farm I wan- dered,|when I was|young,|then ma- ny hap- py|days I squan- dered,|ma- ny the songs I|sung.|
 E4 DEED | E2 E2 E E3 | G4 E2 E2 | D6 z2 | E4 DEED | E2 E2 E E3 |[M:2/2] G2 EE D2 (D>D) | E6 z2 | %16
w: ||||||||
w: When I was play- ing|with my broth- er,|hap- py was|I;|Oh, take me to my|kind old moth- er,|there let me live and *|die.|
 A3 A A2 A2 | G3 A G2 B2 | A2 A2 A2 A2 | G6 z2 | E4 DEED | E2 E2 E E3 | G2 EE D2 D>D | E6 z2 |] %24
w: ||||||||
w: ||||||||
V:3
 B,4 A,G,B,A, | G,2 G,2 A, C3 | E4 B,2 G,2 | B,6 z2 | B,4 A,G,B,A, |[M:4/4] G,2 G,2 A, C3 | %6
 E2 B,>G, B,2 A,2 | G,6 z2 | B,4 A,G,B,A, | G,2 G,2 A, C3 | E4 B,2 G,2 | B,6 z2 | B,4 A,G,B,A, | %13
 G,2 G,2 A, C3 |[M:2/2] E2 B,B, B,2 (A,>A,) | G,6 z2 | F3 E D2 F2 | E3 E E2 B,2 | C2 C2 E2 E2 | %19
"^This edition produced by Andrew Sims 2016" E6 z2 | B,4 A,G,B,A, | G,2 G,2 A, C3 | %22
 E2 B,B, B,2 A,>A, | G,6 z2 |] %24
V:4
 E,4 E,E,E,E, | E,2 E,2 A, A,3 | E,4 E,2 E,2 | B,,6 z2 | E,4 E,E,E,E, |[M:4/4] E,2 E,2 A, A,3 | %6
 B,2 B,,>B,, B,,2 B,,2 | E,6 z2 | E,4 E,E,E,E, | E,2 E,2 A, A,3 | E,4 E,2 E,2 | B,,6 z2 | %12
 E,4 E,E,E,E, | E,2 E,2 A, A,3 |[M:2/2] B,2 B,,B,, B,,2 (B,,>B,,) | E,6 z2 | B,3 B, B,2 B,2 | %17
 E,3 E, E,2 G,2 | A,2 A,2 C2 A,2 | E,6 z2 | E,4 E,E,E,E, | E,2 E,2 A, !fermata!A,3 | %22
 B,2 B,,B,, B,,2 B,,>B,, | E,6 z2 |] %24

